X:199
T:Lady Ross's Jig.
R:Jig
M:6/8
L:1/8
Q:116
K:D
|:fe |  "D" d2 B AFD | DFA "G" Bcd | "A" efg "D" fed | "A" cde ABc |!
 "D" d2 B AFD | DFA "G" Bcd | "A" efg "D" fed | "A" ABc  "D" d2 : ||!
fg | "D" (afd) dfg | (aba) afd | "C" (ge=c) cef | gag efg |!
 "D" (afd) dfg | (aba) agf | "G" gag "D" fed | "A" ABc "D" dfg |!
"D" (afd) dfg | (aba) afd | "C" (ge=c) cef | gag efg |!
 "D" afa "Em" beg | "D" fed  "A" cBA | "G" Bcd "A" efg | "D" fdd d2 ||
